; generated by Slic3r 0.9.10b on 2013-10-16 at 21:40:12

; layer_height = 0.2
; perimeters = 1
; top_solid_layers = 3
; bottom_solid_layers = 3
; fill_density = .1
; perimeter_speed = 130
; infill_speed = 110
; travel_speed = 160
; nozzle_diameter = 0.4
; filament_diameter = 1.77
; extrusion_multiplier = 1
; perimeters extrusion width = 0.67mm
; infill extrusion width = 0.67mm
; solid infill extrusion width = 0.67mm
; top infill extrusion width = 0.67mm
; first layer extrusion width = 0.60mm

G21 ; set units to millimeters
M107
M104 S190 ; set temperature
G28 ; home all axes
G1 Z5 F5000 ; lift nozzle
M301 P15.04 I0.52 D107.65 ; PID Control
M109 S190 ; wait for temperature to be reached
G90 ; use absolute coordinates
G92 E0
M82 ; use absolute distances for extrusion
G1 F1800.000 E-1.00000
G92 E0
G1 Z0.300 F9600.000
G1 X63.710 Y53.780
G1 F1800.000 E1.00000
G1 X64.150 Y53.280 F2340.000 E1.04524
G1 X64.650 Y52.840 E1.09047
G1 X65.410 Y52.220 E1.15709
G1 X65.910 Y51.840 E1.19975
G1 X66.460 Y51.520 E1.24297
G1 X67.320 Y51.060 E1.30921
G1 X67.890 Y50.790 E1.35205
G1 X68.480 Y50.570 E1.39482
G1 X69.420 Y50.280 E1.46163
G1 X70.080 Y50.120 E1.50776
G1 X70.750 Y50.020 E1.55377
G1 X71.730 Y49.930 E1.62061
G1 X72.330 Y49.900 E1.66141
G1 X127.660 Y49.900 E5.41947
G1 X128.260 Y49.930 E5.46027
G1 X129.240 Y50.020 E5.52711
G1 X129.910 Y50.120 E5.57312
G1 X130.570 Y50.280 E5.61925
G1 X131.510 Y50.570 E5.68606
G1 X132.100 Y50.790 E5.72883
G1 X132.670 Y51.060 E5.77167
G1 X133.530 Y51.520 E5.83791
G1 X134.080 Y51.840 E5.88113
G1 X134.580 Y52.220 E5.92379
G1 X135.340 Y52.840 E5.99040
G1 X135.840 Y53.280 E6.03564
G1 X136.280 Y53.780 E6.08088
G1 X136.900 Y54.540 E6.14750
G1 X137.280 Y55.040 E6.19015
G1 X137.600 Y55.590 E6.23337
G1 X138.060 Y56.450 E6.29961
G1 X138.330 Y57.020 E6.34245
G1 X138.550 Y57.610 E6.38522
G1 X138.840 Y58.550 E6.45204
G1 X139.000 Y59.200 E6.49750
G1 X139.100 Y59.870 E6.54351
G1 X139.190 Y60.840 E6.60968
G1 X139.220 Y61.450 E6.65116
G1 X139.220 Y138.530 E11.88649
G1 X139.190 Y139.130 E11.92729
G1 X139.100 Y140.110 E11.99413
G1 X139.000 Y140.780 E12.04014
G1 X138.840 Y141.440 E12.08627
G1 X138.550 Y142.380 E12.15309
G1 X138.330 Y142.970 E12.19585
G1 X138.060 Y143.540 E12.23869
G1 X137.600 Y144.400 E12.30494
G1 X137.280 Y144.950 E12.34815
G1 X136.900 Y145.450 E12.39081
G1 X136.280 Y146.210 E12.45743
G1 X135.840 Y146.710 E12.50266
G1 X135.340 Y147.150 E12.54790
G1 X134.580 Y147.770 E12.61452
G1 X134.080 Y148.150 E12.65717
G1 X133.530 Y148.470 E12.70039
G1 X132.670 Y148.930 E12.76664
G1 X132.100 Y149.200 E12.80948
G1 X131.510 Y149.420 E12.85224
G1 X130.570 Y149.710 E12.91906
G1 X129.950 Y149.870 E12.96255
G1 X129.310 Y149.960 E13.00645
G1 X128.330 Y150.060 E13.07335
G1 X127.660 Y150.100 E13.11894
G1 X72.330 Y150.100 E16.87699
G1 X71.660 Y150.060 E16.92258
G1 X70.680 Y149.960 E16.98949
G1 X70.040 Y149.870 E17.03339
G1 X69.420 Y149.710 E17.07688
G1 X68.480 Y149.420 E17.14369
G1 X67.890 Y149.200 E17.18646
G1 X67.320 Y148.930 E17.22930
G1 X66.460 Y148.470 E17.29554
G1 X65.910 Y148.150 E17.33876
G1 X65.410 Y147.770 E17.38142
G1 X64.650 Y147.150 E17.44803
G1 X64.150 Y146.710 E17.49327
G1 X63.710 Y146.210 E17.53851
G1 X63.090 Y145.450 E17.60513
G1 X62.710 Y144.950 E17.64778
G1 X62.390 Y144.400 E17.69100
G1 X61.930 Y143.540 E17.75724
G1 X61.660 Y142.970 E17.80008
G1 X61.440 Y142.380 E17.84285
G1 X61.150 Y141.440 E17.90966
G1 X60.990 Y140.780 E17.95579
G1 X60.890 Y140.110 E18.00180
G1 X60.800 Y139.130 E18.06864
G1 X60.770 Y138.530 E18.10945
G1 X60.770 Y61.450 E23.34477
G1 X60.800 Y60.840 E23.38626
G1 X60.890 Y59.870 E23.45242
G1 X60.990 Y59.200 E23.49843
G1 X61.150 Y58.550 E23.54390
G1 X61.440 Y57.610 E23.61071
G1 X61.660 Y57.020 E23.65348
G1 X61.930 Y56.450 E23.69632
G1 X62.390 Y55.590 E23.76256
G1 X62.710 Y55.040 E23.80578
G1 X63.090 Y54.540 E23.84844
G1 X63.657 Y53.845 E23.90938
G1 F1800.000 E22.90938
G92 E0
G1 X69.388 Y58.518 F9600.000
G1 F1800.000 E1.00000
G1 X70.019 Y58.001 F2340.000 E1.05539
G1 X70.738 Y57.616 E1.11079
G1 X71.518 Y57.380 E1.16618
G1 X72.371 Y57.296 E1.22438
G1 X127.629 Y57.296 E4.97753
G1 X128.482 Y57.380 E5.03573
G1 X129.262 Y57.616 E5.09112
G1 X129.981 Y58.001 E5.14652
G1 X130.612 Y58.518 E5.20191
G1 X131.129 Y59.149 E5.25730
G1 X131.514 Y59.868 E5.31270
G1 X131.750 Y60.648 E5.36809
G1 X131.834 Y61.501 E5.42629
G1 X131.834 Y138.499 E10.65604
G1 X131.750 Y139.352 E10.71424
G1 X131.514 Y140.132 E10.76963
G1 X131.129 Y140.851 E10.82502
G1 X130.612 Y141.482 E10.88041
G1 X129.981 Y141.999 E10.93581
G1 X129.262 Y142.384 E10.99120
G1 X128.482 Y142.620 E11.04659
G1 X127.629 Y142.704 E11.10479
G1 X72.371 Y142.704 E14.85795
G1 X71.518 Y142.620 E14.91614
G1 X70.738 Y142.384 E14.97154
G1 X70.019 Y141.999 E15.02693
G1 X69.388 Y141.482 E15.08233
G1 X68.871 Y140.851 E15.13772
G1 X68.486 Y140.132 E15.19311
G1 X68.250 Y139.352 E15.24850
G1 X68.166 Y138.499 E15.30670
G1 X68.166 Y61.501 E20.53645
G1 X68.250 Y60.648 E20.59465
G1 X68.486 Y59.868 E20.65004
G1 X68.871 Y59.149 E20.70543
G1 X69.335 Y58.583 E20.75515
G1 X68.992 Y58.122 F9600.000
G1 X69.708 Y57.535 F1872.000 E20.81800
G1 X70.524 Y57.099 E20.88085
G1 X71.409 Y56.831 E20.94370
G1 X72.344 Y56.739 E21.00748
G1 X127.656 Y56.739 E24.76435
G1 X128.591 Y56.831 E24.82813
G1 X129.476 Y57.099 E24.89098
G1 X130.292 Y57.535 E24.95383
G1 X131.008 Y58.122 E25.01667
G1 X131.595 Y58.838 E25.07952
G1 X132.031 Y59.654 E25.14237
G1 X132.299 Y60.539 E25.20521
G1 X132.391 Y61.474 E25.26900
G1 X132.391 Y138.526 E30.50246
G1 X132.299 Y139.461 E30.56625
G1 X132.031 Y140.346 E30.62909
G1 X131.595 Y141.162 E30.69194
G1 X131.008 Y141.878 E30.75478
G1 X130.292 Y142.465 E30.81763
G1 X129.476 Y142.901 E30.88048
G1 X128.591 Y143.169 E30.94332
G1 X127.656 Y143.261 E31.00711
G1 X72.344 Y143.261 E34.76398
G1 X71.409 Y143.169 E34.82776
G1 X70.524 Y142.901 E34.89061
G1 X69.708 Y142.465 E34.95346
G1 X68.992 Y141.878 E35.01630
G1 X68.405 Y141.162 E35.07915
G1 X67.969 Y140.346 E35.14200
G1 X67.701 Y139.461 E35.20484
G1 X67.609 Y138.526 E35.26862
G1 X67.609 Y61.474 E40.50209
G1 X67.701 Y60.539 E40.56587
G1 X67.969 Y59.654 E40.62872
G1 X68.405 Y58.838 E40.69157
G1 X68.939 Y58.187 E40.74874
G1 X128.801 Y57.898 F9600.000
G1 X131.232 Y60.329 F1080.000 E40.98278
G1 X131.408 Y61.296 E41.04965
G1 X127.834 Y57.722 E41.39373
G1 X127.022 Y57.699 E41.44900
G1 X131.431 Y62.107 E41.87336
G1 X131.431 Y62.897 E41.92711
G1 X126.233 Y57.699 E42.42748
G1 X125.443 Y57.699 E42.48123
G1 X131.431 Y63.687 E43.05761
G1 X131.431 Y64.476 E43.11135
G1 X124.654 Y57.699 E43.76374
G1 X123.864 Y57.699 E43.81749
G1 X131.431 Y65.266 E44.54589
G1 X131.431 Y66.055 E44.59964
G1 X123.075 Y57.699 E45.40405
G1 X122.285 Y57.699 E45.45780
G1 X131.431 Y66.845 E46.33822
G1 X131.431 Y67.635 E46.39197
G1 X121.495 Y57.699 E47.34840
G1 X120.706 Y57.699 E47.40215
G1 X131.431 Y68.424 E48.43459
G1 X131.431 Y69.214 E48.48834
G1 X119.916 Y57.699 E49.59679
G1 X119.127 Y57.699 E49.65054
G1 X131.431 Y70.003 E50.83501
G1 X131.431 Y70.793 E50.88875
G1 X118.337 Y57.699 E52.14923
G1 X117.548 Y57.699 E52.20298
G1 X131.431 Y71.582 E53.53946
G1 X131.431 Y72.372 E53.59321
G1 X116.758 Y57.699 E55.00571
G1 X115.968 Y57.699 E55.05946
G1 X131.431 Y73.162 E56.54796
G1 X131.431 Y73.951 E56.60171
G1 X115.179 Y57.699 E58.16623
G1 X114.389 Y57.699 E58.21998
G1 X131.431 Y74.741 E59.86050
G1 X131.431 Y75.530 E59.91425
G1 X113.600 Y57.699 E61.63079
G1 X112.810 Y57.699 E61.68454
G1 X131.431 Y76.320 E63.47709
G1 X131.431 Y77.109 E63.53084
G1 X112.021 Y57.699 E65.39940
G1 X111.231 Y57.699 E65.45314
G1 X131.431 Y77.899 E67.39772
G1 X131.431 Y78.689 E67.45146
G1 X110.441 Y57.699 E69.47205
G1 X109.652 Y57.699 E69.52579
G1 X131.431 Y79.478 E71.62239
G1 X131.431 Y80.268 E71.67613
G1 X108.862 Y57.699 E73.84874
G1 X108.073 Y57.699 E73.90248
G1 X131.431 Y81.057 E76.15110
G1 X131.431 Y81.847 E76.20484
G1 X107.283 Y57.699 E78.52947
G1 X106.493 Y57.699 E78.58322
G1 X131.431 Y82.637 E80.98385
G1 X131.431 Y83.426 E81.03760
G1 X105.704 Y57.699 E83.51425
G1 X104.914 Y57.699 E83.56799
G1 X131.431 Y84.216 E86.12065
G1 X131.431 Y85.005 E86.17440
G1 X104.125 Y57.699 E88.80306
G1 X103.335 Y57.699 E88.85681
G1 X131.431 Y85.795 E91.56149
G1 X131.431 Y86.584 E91.61524
G1 X102.546 Y57.699 E94.39592
G1 X101.756 Y57.699 E94.44967
G1 X131.431 Y87.374 E97.30637
G1 X131.431 Y88.164 E97.36012
G1 X100.966 Y57.699 E100.29283
G1 X100.177 Y57.699 E100.34658
G1 X131.431 Y88.953 E103.35530
G1 X131.431 Y89.743 E103.40904
G1 X99.387 Y57.699 E106.49377
G1 X98.598 Y57.699 E106.54752
G1 X131.431 Y90.532 E109.70826
G1 X131.431 Y91.322 E109.76201
G1 X97.808 Y57.699 E112.99876
G1 X97.019 Y57.699 E113.05251
G1 X131.431 Y92.111 E116.36527
G1 X131.431 Y92.901 E116.41902
G1 X96.229 Y57.699 E119.80779
G1 X95.439 Y57.699 E119.86154
G1 X131.431 Y93.691 E123.32633
G1 X131.431 Y94.480 E123.38007
G1 X94.650 Y57.699 E126.92087
G1 X93.860 Y57.699 E126.97462
G1 X131.431 Y95.270 E130.59142
G1 X131.431 Y96.059 E130.64517
G1 X93.071 Y57.699 E134.33799
G1 X92.281 Y57.699 E134.39173
G1 X131.431 Y96.849 E138.16056
G1 X131.431 Y97.638 E138.21431
G1 X91.492 Y57.699 E142.05914
G1 X90.702 Y57.699 E142.11289
G1 X131.431 Y98.428 E146.03374
G1 X131.431 Y99.218 E146.08749
G1 X89.912 Y57.699 E150.08435
G1 X89.123 Y57.699 E150.13809
G1 X131.431 Y100.007 E154.21096
G1 X131.431 Y100.797 E154.26471
G1 X88.333 Y57.699 E158.41359
G1 X87.544 Y57.699 E158.46734
G1 X131.431 Y101.586 E162.69223
G1 X131.431 Y102.376 E162.74598
G1 X86.754 Y57.699 E167.04688
G1 X85.964 Y57.699 E167.10062
G1 X131.431 Y103.166 E171.47754
G1 X131.431 Y103.955 E171.53128
G1 X85.175 Y57.699 E175.98421
G1 X84.385 Y57.699 E176.03795
G1 X131.431 Y104.745 E180.56689
G1 X131.431 Y105.534 E180.62063
G1 X83.596 Y57.699 E185.22558
G1 X82.806 Y57.699 E185.27933
G1 X131.431 Y106.324 E189.96028
G1 X131.431 Y107.113 E190.01403
G1 X82.017 Y57.699 E194.77099
G1 X81.227 Y57.699 E194.82474
G1 X131.431 Y107.903 E199.65772
G1 X131.431 Y108.693 E199.71146
G1 X80.437 Y57.699 E204.62045
G1 X79.648 Y57.699 E204.67420
G1 X131.431 Y109.482 E209.65919
G1 X131.431 Y110.272 E209.71294
G1 X78.858 Y57.699 E214.77395
G1 X78.069 Y57.699 E214.82770
G1 X131.431 Y111.061 E219.96472
G1 X131.431 Y111.851 E220.01846
G1 X77.279 Y57.699 E225.23149
G1 X76.490 Y57.699 E225.28524
G1 X131.431 Y112.640 E230.57428
G1 X131.431 Y113.430 E230.62803
G1 X75.700 Y57.699 E235.99308
G1 X74.910 Y57.699 E236.04682
G1 X131.431 Y114.220 E241.48789
G1 X131.431 Y115.009 E241.54163
G1 X74.121 Y57.699 E247.05870
G1 X73.331 Y57.699 E247.11245
G1 X131.431 Y115.799 E252.70553
G1 X131.431 Y116.588 E252.75928
G1 X72.542 Y57.699 E258.42837
G1 X71.809 Y57.757 E258.47838
G1 X131.431 Y117.378 E264.21796
G1 X131.431 Y118.167 E264.27171
G1 X71.170 Y57.907 E270.07283
G1 X70.614 Y58.140 E270.11389
G1 X131.431 Y118.957 E275.96856
G1 X131.431 Y119.747 E276.02230
G1 X70.122 Y58.438 E281.92432
G1 X69.688 Y58.794 E281.96251
G1 X131.431 Y120.536 E287.90627
G1 X131.431 Y121.326 E287.96001
G1 X69.330 Y59.225 E293.93827
G1 X69.027 Y59.712 E293.97729
G1 X131.431 Y122.115 E299.98469
G1 X131.431 Y122.905 E300.03844
G1 X68.788 Y60.263 E306.06884
G1 X68.631 Y60.895 E306.11319
G1 X131.431 Y123.695 E312.15874
G1 X131.431 Y124.484 E312.21249
G1 X68.569 Y61.623 E318.26398
G1 X68.569 Y62.412 E318.31773
G1 X131.431 Y125.274 E324.36922
G1 X131.431 Y126.063 E324.42297
G1 X68.569 Y63.202 E330.47447
G1 X68.569 Y63.992 E330.52821
G1 X131.431 Y126.853 E336.57971
G1 X131.431 Y127.642 E336.63345
G1 X68.569 Y64.781 E342.68495
G1 X68.569 Y65.571 E342.73869
G1 X131.431 Y128.432 E348.79019
G1 X131.431 Y129.222 E348.84393
G1 X68.569 Y66.360 E354.89543
G1 X68.569 Y67.150 E354.94918
G1 X131.431 Y130.011 E361.00067
G1 X131.431 Y130.801 E361.05442
G1 X68.569 Y67.940 E367.10591
G1 X68.569 Y68.729 E367.15966
G1 X131.431 Y131.590 E373.21115
G1 X131.431 Y132.380 E373.26490
G1 X68.569 Y69.519 E379.31639
G1 X68.569 Y70.308 E379.37014
G1 X131.431 Y133.169 E385.42163
G1 X131.431 Y133.959 E385.47538
G1 X68.569 Y71.098 E391.52687
G1 X68.569 Y71.887 E391.58062
G1 X131.431 Y134.749 E397.63211
G1 X131.431 Y135.538 E397.68586
G1 X68.569 Y72.677 E403.73735
G1 X68.569 Y73.467 E403.79110
G1 X131.431 Y136.328 E409.84259
G1 X131.431 Y137.117 E409.89634
G1 X68.569 Y74.256 E415.94783
G1 X68.569 Y75.046 E416.00158
G1 X131.431 Y137.907 E422.05307
G1 X131.411 Y138.677 E422.10551
G1 X68.569 Y75.835 E428.15513
G1 X68.569 Y76.625 E428.20887
G1 X131.321 Y139.376 E434.24981
G1 X131.136 Y139.981 E434.29287
G1 X68.569 Y77.414 E440.31603
G1 X68.569 Y78.204 E440.36978
G1 X130.861 Y140.496 E446.36647
G1 X130.526 Y140.950 E446.40490
G1 X68.569 Y78.994 E452.36929
G1 X68.569 Y79.783 E452.42304
G1 X130.136 Y141.350 E458.34991
G1 X129.692 Y141.696 E458.38820
G1 X68.569 Y80.573 E464.27237
G1 X68.569 Y81.362 E464.32611
G1 X129.178 Y141.971 E470.16074
G1 X128.585 Y142.167 E470.20328
G1 X68.569 Y82.152 E475.98080
G1 X68.569 Y82.941 E476.03455
G1 X127.900 Y142.272 E481.74614
G1 X127.139 Y142.301 E481.79798
G1 X68.569 Y83.731 E487.43632
G1 X68.569 Y84.521 E487.49007
G1 X126.349 Y142.301 E493.05240
G1 X125.560 Y142.301 E493.10615
G1 X68.569 Y85.310 E498.59247
G1 X68.569 Y86.100 E498.64622
G1 X124.770 Y142.301 E504.05653
G1 X123.981 Y142.301 E504.11028
G1 X68.569 Y86.889 E509.44458
G1 X68.569 Y87.679 E509.49833
G1 X123.191 Y142.301 E514.75662
G1 X122.401 Y142.301 E514.81037
G1 X68.569 Y88.469 E519.99265
G1 X68.569 Y89.258 E520.04640
G1 X121.612 Y142.301 E525.15267
G1 X120.822 Y142.301 E525.20641
G1 X68.569 Y90.048 E530.23667
G1 X68.569 Y90.837 E530.29042
G1 X120.033 Y142.301 E535.24467
G1 X119.243 Y142.301 E535.29842
G1 X68.569 Y91.627 E540.17666
G1 X68.569 Y92.416 E540.23040
G1 X118.454 Y142.301 E545.03263
G1 X117.664 Y142.301 E545.08638
G1 X68.569 Y93.206 E549.81259
G1 X68.569 Y93.996 E549.86634
G1 X116.874 Y142.301 E554.51655
G1 X116.085 Y142.301 E554.57030
G1 X68.569 Y94.785 E559.14449
G1 X68.569 Y95.575 E559.19824
G1 X115.295 Y142.301 E563.69642
G1 X114.506 Y142.301 E563.75017
G1 X68.569 Y96.364 E568.17234
G1 X68.569 Y97.154 E568.22609
G1 X113.716 Y142.301 E572.57226
G1 X112.927 Y142.301 E572.62600
G1 X68.569 Y97.943 E576.89616
G1 X68.569 Y98.733 E576.94990
G1 X112.137 Y142.301 E581.14405
G1 X111.347 Y142.301 E581.19779
G1 X68.569 Y99.523 E585.31592
G1 X68.569 Y100.312 E585.36967
G1 X110.558 Y142.301 E589.41179
G1 X109.768 Y142.301 E589.46554
G1 X68.569 Y101.102 E593.43165
G1 X68.569 Y101.891 E593.48540
G1 X108.979 Y142.301 E597.37550
G1 X108.189 Y142.301 E597.42924
G1 X68.569 Y102.681 E601.24333
G1 X68.569 Y103.470 E601.29708
G1 X107.399 Y142.301 E605.03516
G1 X106.610 Y142.301 E605.08891
G1 X68.569 Y104.260 E608.75097
G1 X68.569 Y105.050 E608.80472
G1 X105.820 Y142.301 E612.39078
G1 X105.031 Y142.301 E612.44453
G1 X68.569 Y105.839 E615.95457
G1 X68.569 Y106.629 E616.00832
G1 X104.241 Y142.301 E619.44236
G1 X103.452 Y142.301 E619.49610
G1 X68.569 Y107.418 E622.85413
G1 X68.569 Y108.208 E622.90788
G1 X102.662 Y142.301 E626.18989
G1 X101.872 Y142.301 E626.24364
G1 X68.569 Y108.998 E629.44964
G1 X68.569 Y109.787 E629.50339
G1 X101.083 Y142.301 E632.63338
G1 X100.293 Y142.301 E632.68713
G1 X68.569 Y110.577 E635.74111
G1 X68.569 Y111.366 E635.79486
G1 X99.504 Y142.301 E638.77283
G1 X98.714 Y142.301 E638.82658
G1 X68.569 Y112.156 E641.72854
G1 X68.569 Y112.945 E641.78229
G1 X97.925 Y142.301 E644.60824
G1 X97.135 Y142.301 E644.66199
G1 X68.569 Y113.735 E647.41193
G1 X68.569 Y114.525 E647.46567
G1 X96.345 Y142.301 E650.13960
G1 X95.556 Y142.301 E650.19335
G1 X68.569 Y115.314 E652.79127
G1 X68.569 Y116.104 E652.84502
G1 X94.766 Y142.301 E655.36692
G1 X93.977 Y142.301 E655.42067
G1 X68.569 Y116.893 E657.86657
G1 X68.569 Y117.683 E657.92032
G1 X93.187 Y142.301 E660.29020
G1 X92.398 Y142.301 E660.34395
G1 X68.569 Y118.472 E662.63783
G1 X68.569 Y119.262 E662.69157
G1 X91.608 Y142.301 E664.90944
G1 X90.818 Y142.301 E664.96319
G1 X68.569 Y120.052 E667.10504
G1 X68.569 Y120.841 E667.15879
G1 X90.029 Y142.301 E669.22463
G1 X89.239 Y142.301 E669.27838
G1 X68.569 Y121.631 E671.26821
G1 X68.569 Y122.420 E671.32196
G1 X88.450 Y142.301 E673.23578
G1 X87.660 Y142.301 E673.28953
G1 X68.569 Y123.210 E675.12734
