; generated by Slic3r 0.9.10b on 2013-10-16 at 21:03:29

; layer_height = 0.2
; perimeters = 2
; top_solid_layers = 3
; bottom_solid_layers = 3
; fill_density = .1
; perimeter_speed = 130
; infill_speed = 110
; travel_speed = 160
; nozzle_diameter = 0.4
; filament_diameter = 1.77
; extrusion_multiplier = 1
; perimeters extrusion width = 0.67mm
; infill extrusion width = 0.67mm
; solid infill extrusion width = 0.67mm
; top infill extrusion width = 0.67mm
; first layer extrusion width = 0.60mm

G21 ; set units to millimeters
M107
M104 S190 ; set temperature
G28 ; home all axes
G1 Z5 F5000 ; lift nozzle
M301 P15.04 I0.52 D107.65 ; PID Control
M109 S190 ; wait for temperature to be reached
G90 ; use absolute coordinates
G92 E0
M82 ; use absolute distances for extrusion
G1 F1800.000 E-1.00000
G92 E0
G1 Z0.300 F9600.000
G1 X67.190 Y59.700
G1 F1800.000 E1.00000
G1 X68.190 Y58.890 F2340.000 E1.08741
G1 X69.320 Y58.280 E1.17463
G1 X70.550 Y57.910 E1.26187
G1 X71.830 Y57.780 E1.34925
G1 X128.170 Y57.780 E5.17590
G1 X129.450 Y57.910 E5.26329
G1 X130.680 Y58.280 E5.35053
G1 X131.810 Y58.890 E5.43775
G1 X132.810 Y59.700 E5.52516
G1 X133.620 Y60.700 E5.61256
G1 X134.230 Y61.830 E5.69978
G1 X134.600 Y63.060 E5.78702
G1 X134.730 Y64.340 E5.87441
G1 X134.730 Y133.010 E10.53852
G1 X134.570 Y134.460 E10.63761
G1 X134.090 Y135.830 E10.73620
G1 X133.320 Y137.070 E10.83534
G1 X132.300 Y138.100 E10.93380
G1 X131.070 Y138.890 E11.03309
G1 X125.700 Y141.540 E11.43982
G1 X124.290 Y142.050 E11.54166
G1 X122.800 Y142.220 E11.64351
G1 X87.920 Y142.220 E14.01259
G1 X87.340 Y142.190 E14.05203
G1 X86.760 Y142.110 E14.09180
G1 X72.010 Y139.460 E15.10967
G1 X70.750 Y139.100 E15.19868
G1 X69.590 Y138.500 E15.28738
G1 X68.570 Y137.680 E15.37627
G1 X67.230 Y136.360 E15.50403
G1 X66.400 Y135.360 E15.59229
G1 X65.780 Y134.220 E15.68043
G1 X65.400 Y132.980 E15.76852
G1 X65.270 Y131.690 E15.85658
G1 X65.270 Y64.340 E20.43104
G1 X65.400 Y63.060 E20.51843
G1 X65.770 Y61.830 E20.60567
G1 X66.380 Y60.700 E20.69289
G1 X67.137 Y59.765 E20.77462
G1 F1800.000 E19.77462
G92 E0
G1 X74.494 Y67.004 F9600.000
G1 F1800.000 E1.00000
G1 X125.506 Y67.004 F2340.000 E4.46472
G1 X125.506 Y77.798 E5.19783
G1 X125.855 Y78.085 E5.22854
G1 X126.159 Y78.455 E5.26103
G1 X126.384 Y78.876 E5.29351
G1 X126.523 Y79.334 E5.32600
G1 X126.570 Y79.810 E5.35848
G1 X126.523 Y80.286 E5.39095
G1 X126.384 Y80.743 E5.42344
G1 X126.159 Y81.165 E5.45592
G1 X125.855 Y81.535 E5.48841
G1 X125.506 Y81.822 E5.51912
G1 X125.506 Y131.197 E8.87272
G1 X122.672 Y131.197 E9.06516
G1 X121.744 Y132.148 E9.15543
G1 X121.592 Y131.864 E9.17727
G1 X121.304 Y132.813 E9.24465
G1 X121.079 Y133.235 E9.27712
G1 X120.775 Y133.605 E9.30962
G1 X120.405 Y133.908 E9.34211
G1 X119.984 Y134.134 E9.37459
G1 X119.050 Y134.417 E9.44084
G1 X118.116 Y134.134 E9.50711
G1 X117.695 Y133.908 E9.53960
G1 X117.321 Y133.602 E9.57243
G1 X92.839 Y133.602 E11.23526
G1 X92.465 Y133.908 E11.26809
G1 X92.044 Y134.134 E11.30057
G1 X91.110 Y134.417 E11.36682
G1 X90.176 Y134.134 E11.43310
G1 X89.755 Y133.908 E11.46558
G1 X89.385 Y133.605 E11.49807
G1 X89.081 Y133.235 E11.53056
G1 X88.614 Y132.360 E11.59796
G1 X88.436 Y132.947 E11.63962
G1 X86.726 Y131.197 E11.80579
G1 X76.153 Y131.197 E12.52391
G1 X74.494 Y129.500 E12.68510
G1 X74.494 Y83.092 E15.83715
G1 X74.145 Y82.805 E15.86786
G1 X73.841 Y82.435 E15.90034
G1 X73.616 Y82.013 E15.93283
G1 X73.477 Y81.556 E15.96531
G1 X73.430 Y81.080 E15.99779
G1 X73.477 Y80.604 E16.03027
G1 X73.616 Y80.146 E16.06276
G1 X73.841 Y79.724 E16.09524
G1 X74.145 Y79.355 E16.12772
G1 X74.494 Y79.068 E16.15844
G1 X74.494 Y67.088 E16.97213
G1 F1800.000 E15.97213
G92 E0
G1 X122.286 Y79.443 F9600.000
G1 F1800.000 E1.00000
G1 X122.393 Y79.090 F540.000 E1.02504
G1 X122.567 Y78.765 E1.05006
G1 X122.801 Y78.481 E1.07510
G1 X123.086 Y78.247 E1.10013
G1 X123.411 Y78.073 E1.12516
G1 X123.763 Y77.966 E1.15019
G1 X124.130 Y77.930 E1.17522
G1 X124.497 Y77.966 E1.20025
G1 X124.849 Y78.073 E1.22528
G1 X125.174 Y78.247 E1.25031
G1 X125.459 Y78.481 E1.27534
G1 X125.693 Y78.765 E1.30038
G1 X125.867 Y79.090 E1.32540
G1 X125.974 Y79.443 E1.35044
G1 X126.010 Y79.810 E1.37546
G1 X125.974 Y80.177 E1.40049
G1 X125.867 Y80.529 E1.42552
G1 X125.693 Y80.854 E1.45055
G1 X125.459 Y81.139 E1.47558
G1 X125.174 Y81.373 E1.50062
G1 X124.849 Y81.547 E1.52565
G1 X124.497 Y81.654 E1.55068
G1 X124.130 Y81.690 E1.57571
G1 X123.763 Y81.654 E1.60073
G1 X123.411 Y81.547 E1.62577
G1 X123.086 Y81.373 E1.65079
G1 X122.801 Y81.139 E1.67583
G1 X122.567 Y80.854 E1.70086
G1 X122.393 Y80.529 E1.72589
G1 X122.286 Y80.177 E1.75093
G1 X122.250 Y79.810 E1.77595
G1 X122.278 Y79.526 E1.79530
G1 X122.639 Y79.336 F9600.000
G1 X121.525 Y78.731
G1 X121.364 Y79.260 F1872.000 E1.83285
G1 X121.310 Y79.810 E1.87040
G1 X121.364 Y80.360 E1.90795
G1 X121.525 Y80.889 E1.94550
G1 X121.785 Y81.377 E1.98305
G1 X122.136 Y81.804 E2.02060
G1 X122.563 Y82.155 E2.05815
G1 X123.051 Y82.415 E2.09570
G1 X123.580 Y82.576 E2.13324
G1 X124.130 Y82.630 E2.17079
G1 X124.949 Y82.549 E2.22666
G1 X124.949 Y130.640 E5.49301
G1 X122.438 Y130.640 E5.66354
G1 X121.877 Y131.214 E5.71809
G1 X121.395 Y130.313 E5.78751
G1 X121.044 Y129.886 E5.82506
G1 X120.617 Y129.535 E5.86261
G1 X120.129 Y129.274 E5.90015
G1 X119.600 Y129.114 E5.93770
G1 X119.050 Y129.060 E5.97525
G1 X118.500 Y129.114 E6.01280
G1 X117.971 Y129.274 E6.05035
G1 X117.483 Y129.535 E6.08790
G1 X117.056 Y129.886 E6.12545
G1 X116.705 Y130.313 E6.16300
G1 X116.445 Y130.801 E6.20055
G1 X116.284 Y131.330 E6.23810
G1 X116.230 Y131.880 E6.27565
G1 X116.284 Y132.430 E6.31320
G1 X116.471 Y133.045 E6.35682
G1 X93.689 Y133.045 E7.90413
G1 X93.876 Y132.430 E7.94776
G1 X93.930 Y131.880 E7.98531
G1 X93.876 Y131.330 E8.02286
G1 X93.715 Y130.801 E8.06041
G1 X93.455 Y130.313 E8.09796
G1 X93.104 Y129.886 E8.13551
G1 X92.677 Y129.535 E8.17306
G1 X92.189 Y129.274 E8.21060
G1 X91.660 Y129.114 E8.24815
G1 X91.110 Y129.060 E8.28570
G1 X90.560 Y129.114 E8.32325
G1 X90.031 Y129.274 E8.36080
G1 X89.543 Y129.535 E8.39835
G1 X89.116 Y129.886 E8.43590
G1 X88.765 Y130.313 E8.47345
G1 X88.505 Y130.801 E8.51100
G1 X88.176 Y131.884 E8.58789
G1 X86.960 Y130.640 E8.70603
G1 X76.387 Y130.640 E9.42415
G1 X75.051 Y129.273 E9.55399
G1 X75.051 Y83.819 E12.64121
G1 X75.870 Y83.900 E12.69708
G1 X76.420 Y83.846 E12.73462
G1 X76.949 Y83.685 E12.77218
G1 X77.437 Y83.425 E12.80972
G1 X77.864 Y83.074 E12.84727
G1 X78.215 Y82.647 E12.88482
G1 X78.475 Y82.159 E12.92237
G1 X78.636 Y81.630 E12.95992
G1 X78.690 Y81.080 E12.99747
G1 X78.636 Y80.530 E13.03502
G1 X78.475 Y80.001 E13.07257
G1 X78.215 Y79.513 E13.11012
G1 X77.864 Y79.086 E13.14766
G1 X77.437 Y78.735 E13.18522
G1 X76.949 Y78.474 E13.22276
G1 X76.420 Y78.314 E13.26031
G1 X75.870 Y78.260 E13.29786
G1 X75.051 Y78.340 E13.35373
G1 X75.051 Y67.561 E14.08585
G1 X124.949 Y67.561 E17.47489
G1 X124.949 Y77.070 E18.12076
G1 X124.130 Y76.990 E18.17662
G1 X123.580 Y77.044 E18.21417
G1 X123.051 Y77.204 E18.25172
G1 X122.563 Y77.465 E18.28927
G1 X122.136 Y77.816 E18.32682
G1 X121.785 Y78.243 E18.36437
G1 X121.564 Y78.657 E18.39624
G1 X120.979 Y78.821 F9600.000
G1 F1800.000 E17.39624
G92 E0
G1 X77.750 Y81.080 F9600.000
G1 F1800.000 E1.00000
G1 X77.714 Y81.447 F540.000 E1.02503
G1 X77.607 Y81.799 E1.05006
G1 X77.433 Y82.124 E1.07509
G1 X77.199 Y82.409 E1.10012
G1 X76.914 Y82.643 E1.12515
G1 X76.589 Y82.817 E1.15018
G1 X76.237 Y82.924 E1.17521
G1 X75.870 Y82.960 E1.20024
G1 X75.503 Y82.924 E1.22527
G1 X75.151 Y82.817 E1.25030
G1 X74.826 Y82.643 E1.27533
G1 X74.541 Y82.409 E1.30037
G1 X74.307 Y82.124 E1.32540
G1 X74.133 Y81.799 E1.35043
G1 X74.026 Y81.447 E1.37546
G1 X73.990 Y81.080 E1.40049
G1 X74.026 Y80.713 E1.42551
G1 X74.133 Y80.360 E1.45055
G1 X74.307 Y80.035 E1.47558
G1 X74.541 Y79.751 E1.50061
G1 X74.826 Y79.517 E1.52564
G1 X75.151 Y79.343 E1.55067
G1 X75.503 Y79.236 E1.57570
G1 X75.870 Y79.200 E1.60073
G1 X76.237 Y79.236 E1.62576
G1 X76.589 Y79.343 E1.65079
G1 X76.914 Y79.517 E1.67582
G1 X77.199 Y79.751 E1.70085
G1 X77.433 Y80.035 E1.72588
G1 X77.607 Y80.360 E1.75091
G1 X77.714 Y80.713 E1.77595
G1 X77.742 Y80.997 E1.79530
G1 X77.425 Y81.254 F9600.000
G1 F1800.000 E0.79530
G92 E0
G1 X90.743 Y130.036 F9600.000
G1 F1800.000 E1.00000
G1 X91.110 Y130.000 F540.000 E1.02503
G1 X91.477 Y130.036 E1.05005
G1 X91.829 Y130.143 E1.07509
G1 X92.154 Y130.317 E1.10011
G1 X92.439 Y130.551 E1.12515
G1 X92.673 Y130.835 E1.15018
G1 X92.847 Y131.160 E1.17521
G1 X92.954 Y131.513 E1.20024
G1 X92.990 Y131.880 E1.22527
G1 X92.954 Y132.247 E1.25030
G1 X92.847 Y132.599 E1.27533
G1 X92.673 Y132.924 E1.30036
G1 X92.439 Y133.209 E1.32539
G1 X92.154 Y133.443 E1.35043
G1 X91.829 Y133.617 E1.37545
G1 X91.477 Y133.724 E1.40049
G1 X91.110 Y133.760 E1.42552
G1 X90.743 Y133.724 E1.45054
G1 X90.391 Y133.617 E1.47558
G1 X90.066 Y133.443 E1.50060
G1 X89.781 Y133.209 E1.52564
G1 X89.547 Y132.924 E1.55067
G1 X89.373 Y132.599 E1.57570
G1 X89.266 Y132.247 E1.60073
G1 X89.230 Y131.880 E1.62576
G1 X89.266 Y131.513 E1.65079
G1 X89.373 Y131.160 E1.67582
G1 X89.547 Y130.835 E1.70085
G1 X89.781 Y130.551 E1.72588
G1 X90.066 Y130.317 E1.75092
G1 X90.391 Y130.143 E1.77594
G1 X90.663 Y130.060 E1.79530
G1 X90.977 Y130.321 F9600.000
G1 F1800.000 E0.79530
G92 E0
G1 X117.170 Y131.880 F9600.000
G1 F1800.000 E1.00000
G1 X117.206 Y131.513 F540.000 E1.02503
G1 X117.313 Y131.160 E1.05006
G1 X117.487 Y130.835 E1.07509
G1 X117.721 Y130.551 E1.10012
G1 X118.006 Y130.317 E1.12516
G1 X118.331 Y130.143 E1.15018
G1 X118.683 Y130.036 E1.17522
G1 X119.050 Y130.000 E1.20024
G1 X119.417 Y130.036 E1.22527
G1 X119.769 Y130.143 E1.25031
G1 X120.094 Y130.317 E1.27533
G1 X120.379 Y130.551 E1.30037
G1 X120.613 Y130.835 E1.32540
G1 X120.787 Y131.160 E1.35043
G1 X120.894 Y131.513 E1.37546
G1 X120.930 Y131.880 E1.40049
G1 X120.894 Y132.247 E1.42551
G1 X120.787 Y132.599 E1.45055
G1 X120.613 Y132.924 E1.47558
G1 X120.379 Y133.209 E1.50061
G1 X120.094 Y133.443 E1.52565
G1 X119.769 Y133.617 E1.55067
G1 X119.417 Y133.724 E1.57571
G1 X119.050 Y133.760 E1.60073
G1 X118.683 Y133.724 E1.62576
G1 X118.331 Y133.617 E1.65079
G1 X118.006 Y133.443 E1.67582
G1 X117.721 Y133.209 E1.70086
G1 X117.487 Y132.924 E1.72589
G1 X117.313 Y132.599 E1.75092
G1 X117.206 Y132.247 E1.77595
G1 X117.178 Y131.963 E1.79530
G1 X117.495 Y131.706 F9600.000
G1 F1800.000 E0.79530
G92 E0
G1 X122.462 Y134.825 F9600.000
G1 F1800.000 E1.00000
G1 X88.269 Y134.825 F2340.000 E3.32238
G1 X85.587 Y132.183 E3.57810
G1 X73.514 Y132.183 E4.39810
G1 X72.666 Y131.348 E4.47894
G1 X72.666 Y65.175 E8.97342
G1 X127.334 Y65.175 E12.68656
G1 X127.334 Y132.183 E17.23776
G1 X125.145 Y132.183 E17.38648
G1 X122.522 Y134.766 E17.63652
G1 X122.690 Y135.382 F9600.000
G1 X88.041 Y135.382 F1872.000 E19.98991
G1 X85.358 Y132.740 E20.24563
G1 X73.286 Y132.740 E21.06562
G1 X72.109 Y131.581 E21.17781
G1 X72.109 Y64.618 E25.72597
G1 X127.891 Y64.618 E29.51479
G1 X127.891 Y132.740 E34.14166
G1 X125.373 Y132.740 E34.31272
G1 X122.750 Y135.323 E34.56276
G1 X122.297 Y134.987 F9600.000
G1 X120.675 Y134.421
G1 X120.649 Y134.395 F1080.000 E34.56526
G1 X121.005 Y133.962 E34.60333
G1 X121.464 Y134.421 E34.64745
G1 X122.252 Y134.421 E34.70103
G1 X121.360 Y133.529 E34.78678
G1 X121.647 Y133.028 E34.82603
G1 X122.671 Y134.052 E34.92447
G1 X123.069 Y133.661 E34.96236
G1 X121.936 Y132.528 E35.07121
G1 X122.326 Y132.129 E35.10910
G1 X123.466 Y133.269 E35.21868
G1 X123.863 Y132.878 E35.25657
G1 X122.715 Y131.731 E35.36688
G1 X123.374 Y131.601 E35.41250
G1 X124.260 Y132.487 E35.49770
G1 X124.658 Y132.096 E35.53560
G1 X124.162 Y131.601 E35.58320
G1 X124.951 Y131.601 E35.63678
G1 X125.055 Y131.705 E35.64679
G1 F1800.000 E34.64679
G92 E0
G1 X117.094 Y133.203 F9600.000
G1 F1800.000 E1.00000
G1 X116.866 Y132.975 F360.000 E1.01081
G1 X116.905 Y132.626 E1.02257
G1 X116.697 Y132.417 E1.03241
G1 X116.794 Y132.127 E1.04267
G1 X116.639 Y131.972 E1.04999
G1 X116.785 Y131.729 E1.05946
G1 X116.658 Y131.602 E1.06546
G1 X116.829 Y131.385 E1.07471
G1 X116.718 Y131.273 E1.07997
G1 X116.919 Y131.087 E1.08916
G1 X116.808 Y130.976 E1.09443
G1 X117.042 Y130.822 E1.10381
G1 X116.940 Y130.719 E1.10866
G1 X117.086 Y130.477 E1.11812
G1 X117.185 Y130.576 E1.12278
G1 X117.360 Y130.363 E1.13201
G1 X117.261 Y130.264 E1.13668
G1 X117.457 Y130.072 E1.14586
G1 X117.556 Y130.170 E1.15052
G1 X117.769 Y129.995 E1.15975
G1 X117.670 Y129.897 E1.16442
G1 X117.917 Y129.755 E1.17393
G1 X118.019 Y129.858 E1.17878
G1 X118.178 Y129.628 E1.18811
G1 X118.289 Y129.739 E1.19338
G1 X118.476 Y129.538 E1.20257
G1 X118.587 Y129.649 E1.20783
G1 X118.810 Y129.484 E1.21711
G1 X118.937 Y129.611 E1.22312
G1 X119.189 Y129.474 E1.23269
G1 X119.343 Y129.628 E1.24001
G1 X119.648 Y129.545 E1.25058
G1 X119.856 Y129.753 E1.26042
G1 X120.319 Y129.828 E1.27610
G1 X121.102 Y130.611 E1.31316
G1 X121.177 Y131.074 E1.32884
G1 X121.360 Y131.257 E1.33750
G1 X125.918 Y131.779 F9600.000
G1 X125.909 Y130.983 F1080.000 E1.39160
G1 X126.706 Y131.779 E1.46811
G1 X126.931 Y131.216 E1.50933
G1 X125.909 Y130.194 E1.60742
G1 X125.909 Y129.406 E1.66097
G1 X126.931 Y130.427 E1.75906
G1 X126.931 Y129.639 E1.81261
G1 X125.909 Y128.618 E1.91071
G1 X125.909 Y127.829 E1.96425
G1 X126.931 Y128.850 E2.06235
G1 X126.931 Y128.062 E2.11589
G1 X125.909 Y127.041 E2.21399
G1 X125.909 Y126.252 E2.26754
G1 X126.931 Y127.274 E2.36563
G1 X126.931 Y126.485 E2.41918
G1 X125.909 Y125.464 E2.51727
G1 X125.909 Y124.676 E2.57082
G1 X126.931 Y125.697 E2.66891
G1 X126.931 Y124.909 E2.72246
G1 X125.909 Y123.887 E2.82056
G1 X125.909 Y123.099 E2.87410
G1 X126.931 Y124.120 E2.97220
G1 X126.931 Y123.332 E3.02575
G1 X125.909 Y122.311 E3.12384
G1 X125.909 Y121.522 E3.17739
G1 X126.931 Y122.543 E3.27548
G1 X126.931 Y121.755 E3.32903
G1 X125.909 Y120.734 E3.42712
G1 X125.909 Y119.945 E3.48067
G1 X126.931 Y120.967 E3.57877
G1 X126.931 Y120.178 E3.63231
G1 X125.909 Y119.157 E3.73041
G1 X125.909 Y118.369 E3.78395
G1 X126.931 Y119.390 E3.88205
G1 X126.931 Y118.602 E3.93560
G1 X125.909 Y117.580 E4.03369
G1 X125.909 Y116.792 E4.08724
G1 X126.931 Y117.813 E4.18533
G1 X126.931 Y117.025 E4.23888
G1 X125.909 Y116.004 E4.33697
G1 X125.909 Y115.215 E4.39052
G1 X126.931 Y116.236 E4.48862
G1 X126.931 Y115.448 E4.54216
G1 X125.909 Y114.427 E4.64026
G1 X125.909 Y113.638 E4.69381
G1 X126.931 Y114.660 E4.79190
G1 X126.931 Y113.871 E4.84545
G1 X125.909 Y112.850 E4.94354
G1 X125.909 Y112.062 E4.99709
G1 X126.931 Y113.083 E5.09518
G1 X126.931 Y112.294 E5.14873
G1 X125.909 Y111.273 E5.24682
G1 X125.909 Y110.485 E5.30037
G1 X126.931 Y111.506 E5.39847
G1 X126.931 Y110.718 E5.45201
G1 X125.909 Y109.696 E5.55011
G1 X125.909 Y108.908 E5.60366
G1 X126.931 Y109.929 E5.70175
G1 X126.931 Y109.141 E5.75530
G1 X125.909 Y108.120 E5.85339
G1 X125.909 Y107.331 E5.90694
G1 X126.931 Y108.353 E6.00503
G1 X126.931 Y107.564 E6.05858
G1 X125.909 Y106.543 E6.15668
G1 X125.909 Y105.755 E6.21022
G1 X126.931 Y106.776 E6.30832
G1 X126.931 Y105.987 E6.36186
G1 X125.909 Y104.966 E6.45996
G1 X125.909 Y104.178 E6.51351
G1 X126.931 Y105.199 E6.61160
G1 X126.931 Y104.411 E6.66515
G1 X125.909 Y103.389 E6.76324
G1 X125.909 Y102.601 E6.81679
G1 X126.931 Y103.622 E6.91488
G1 X126.931 Y102.834 E6.96843
G1 X125.909 Y101.813 E7.06653
G1 X125.909 Y101.024 E7.12007
G1 X126.931 Y102.046 E7.21817
G1 X126.931 Y101.257 E7.27172
G1 X125.909 Y100.236 E7.36981
G1 X125.909 Y99.448 E7.42336
G1 X126.931 Y100.469 E7.52145
G1 X126.931 Y99.680 E7.57500
G1 X125.909 Y98.659 E7.67309
G1 X125.909 Y97.871 E7.72664
G1 X126.931 Y98.892 E7.82474
G1 X126.931 Y98.104 E7.87828
G1 X125.909 Y97.082 E7.97638
G1 X125.909 Y96.294 E8.02992
G1 X126.931 Y97.315 E8.12802
G1 X126.931 Y96.527 E8.18157
G1 X125.909 Y95.506 E8.27966
G1 X125.909 Y94.717 E8.33321
G1 X126.931 Y95.738 E8.43130
G1 X126.931 Y94.950 E8.48485
G1 X125.909 Y93.929 E8.58294
G1 X125.909 Y93.140 E8.63649
G1 X126.931 Y94.162 E8.73459
G1 X126.931 Y93.373 E8.78813
G1 X125.909 Y92.352 E8.88623
G1 X125.909 Y91.564 E8.93978
G1 X126.931 Y92.585 E9.03787
G1 X126.931 Y91.797 E9.09142
G1 X125.909 Y90.775 E9.18951
G1 X125.909 Y89.987 E9.24306
G1 X126.931 Y91.008 E9.34115
G1 X126.931 Y90.220 E9.39470
G1 X125.909 Y89.199 E9.49279
